X: 1
T: Jim Erwin's
M: 4/4
L: 1/8
K: G
c|B~G3 DEGA|Bdgd cAAc|B~G3 DEGA|Bdgd BGGA|
~B3d ~c3A|Bdgd cAAc|B~G3 DEGA|Bdgd BGG2 ||
bgaf ~g4|e~a3 eaga|bgaf gfed|^cde=c B/c/d ga|
bgaf gbfg|ea a/a/a eaab|{c'}babe agef|gbag {a}gedc||
[B3D3] G DEGA|....
